imgs/pin-footer.svg

<svg width="14" height="18" viewBox="0 0 14 18" fill="none" xmlns="http://www.w3.org/2000/svg">
<path d="M0.921202 6.70543C0.921202 5.97272 1.04928 5.28051 1.30168 4.63445C1.54283 4.00694 1.90111 3.43101 2.35742 2.93736C2.81281 2.45018 3.33392 2.02891 3.90571 1.68573C4.49236 1.33082 5.12748 1.06307 5.79116 0.890865C6.46285 0.71449 7.15449 0.625541 7.84895 0.626225C8.92164 0.626225 9.91993 0.853194 10.8457 1.30525C11.7594 1.74906 12.5371 2.43016 13.0975 3.27734C13.6758 4.13907 13.963 5.11381 13.963 6.20063C13.963 6.85234 13.899 7.48993 13.7681 8.11339C13.6395 8.7365 13.4352 9.34154 13.1597 9.91502C12.897 10.4702 12.5536 10.9833 12.1406 11.4379C11.7256 11.8852 11.2229 12.2423 10.6639 12.487C10.0571 12.753 9.40056 12.8869 8.73799 12.8797C8.27746 12.8797 7.81787 12.7714 7.36393 12.5539C6.90999 12.3373 6.58414 12.0397 6.38825 11.6583C6.3195 11.9229 6.22532 12.3053 6.10006 12.8053C5.97951 13.3045 5.89852 13.6266 5.86273 13.7726C5.82506 13.9176 5.75537 14.1596 5.65366 14.4949C5.58468 14.7429 5.49619 14.9851 5.38902 15.2191L5.06504 15.8539C4.92494 16.1263 4.76831 16.3898 4.59604 16.6431C4.42557 16.8899 4.21461 17.1846 3.96316 17.5237L3.82283 17.5736L3.7296 17.4719C3.62883 16.4048 3.57703 15.7663 3.57703 15.5554C3.57703 14.9309 3.65143 14.2303 3.79835 13.4524C3.94244 12.6754 4.17035 11.6988 4.47643 10.5244C4.78251 9.35089 4.95768 8.66057 5.00477 8.4562C4.7891 8.01639 4.67985 7.4419 4.67985 6.73556C4.67985 6.17144 4.85597 5.6431 5.20914 5.14584C5.56325 4.65046 6.01059 4.40277 6.55306 4.40277C6.96838 4.40277 7.29047 4.54027 7.52121 4.81621C7.75289 5.09121 7.8659 5.43779 7.8659 5.86065C7.8659 6.30894 7.7171 6.95782 7.41761 7.80637C7.11813 8.65586 6.96933 9.28967 6.96933 9.71065C6.96933 10.1373 7.12189 10.4942 7.42703 10.7739C7.72816 11.0538 8.12639 11.2054 8.53739 11.1968C8.91034 11.1968 9.25597 11.112 9.57712 10.9416C9.89325 10.7761 10.1669 10.5398 10.3767 10.2512C10.8337 9.62429 11.1594 8.91158 11.3345 8.15577C11.4249 7.75834 11.4946 7.38068 11.5379 7.02563C11.5841 6.6687 11.6038 6.33154 11.6038 6.01133C11.6038 4.83693 11.2309 3.92152 10.4897 3.26604C9.74476 2.61056 8.77472 2.2847 7.58148 2.2847C6.22438 2.2847 5.08953 2.72357 4.18071 3.60414C3.27095 4.48188 2.81324 5.59789 2.81324 6.95123C2.81324 7.24978 2.85845 7.53796 2.94415 7.81673C3.02797 8.09455 3.11932 8.31587 3.21821 8.47974C3.31615 8.64079 3.40845 8.79807 3.49227 8.9431C3.57703 9.08813 3.62129 9.19173 3.62129 9.25389C3.62129 9.44413 3.57138 9.69182 3.47061 9.9979C3.36607 10.304 3.24269 10.4565 3.09389 10.4565C3.07977 10.4565 3.02138 10.4462 2.91966 10.4245C2.5674 10.3194 2.24928 10.1228 1.99766 9.85474C1.73061 9.57697 1.51985 9.25012 1.37702 8.89224C1.23461 8.53564 1.12368 8.16725 1.04552 7.7913C0.96107 7.43557 0.919337 7.07104 0.921202 6.70543Z" fill="white" fill-opacity="0.8"/>
</svg>

<svg xmlns="http://www.w3.org/2000/svg" width="14" height="18" fill="none" xmlns:v="https://vecta.io/nano"><path d="M.921 6.705a5.65 5.65 0 0 1 .38-2.071 5.3 5.3 0 0 1 1.056-1.697 7.17 7.17 0 0 1 1.548-1.252c.587-.355 1.222-.623 1.885-.795A8.07 8.07 0 0 1 7.849.626c1.073 0 2.071.227 2.997.679a5.67 5.67 0 0 1 2.252 1.972c.578.862.865 1.836.865 2.923 0 .652-.064 1.289-.195 1.913s-.333 1.228-.608 1.802c-.263.555-.606 1.068-1.019 1.523-.415.447-.918.804-1.477 1.049a4.67 4.67 0 0 1-1.926.393c-.461 0-.92-.108-1.374-.326s-.78-.514-.976-.896L6.1 12.805l-.237.967-.209.722a4.88 4.88 0 0 1-.265.724l-.324.635c-.14.272-.297.536-.469.789l-.633.881-.14.05-.093-.102-.153-1.917c0-.625.074-1.325.221-2.103l.678-2.928.528-2.068c-.216-.44-.325-1.014-.325-1.721 0-.564.176-1.092.529-1.59s.801-.743 1.344-.743c.415 0 .737.137.968.413s.345.622.345 1.044c0 .448-.149 1.097-.448 1.946s-.448 1.483-.448 1.904c0 .427.153.784.458 1.063a1.58 1.58 0 0 0 1.11.423 2.18 2.18 0 0 0 1.04-.255c.316-.165.59-.402.8-.69.457-.627.783-1.34.958-2.095l.203-1.13a7.88 7.88 0 0 0 .066-1.014c0-1.174-.373-2.09-1.114-2.745s-1.715-.981-2.908-.981c-1.357 0-2.492.439-3.401 1.319S2.813 5.598 2.813 6.951a2.93 2.93 0 0 0 .131.865c.084.278.175.499.274.663l.274.463c.085.145.129.249.129.311 0 .19-.05.438-.151.744s-.228.459-.377.459a1.62 1.62 0 0 1-.174-.032 2.08 2.08 0 0 1-.922-.57c-.267-.278-.478-.605-.621-.963a6.58 6.58 0 0 1-.331-1.101 4.6 4.6 0 0 1-.124-1.086z" fill="#fff" fill-opacity=".8"/></svg>
